; generated by Slic3r 1.2.9 on 2016-08-17 at 14:42:33

; external perimeters extrusion width = 0.40mm
; perimeters extrusion width = 0.67mm
; infill extrusion width = 0.67mm
; solid infill extrusion width = 0.67mm
; top infill extrusion width = 0.67mm

M107
M104 S220 ; set temperature
G28 X0.0 Y0.0
G1 X0.0
G28 Z0.0
G1 Z5 F2000.0 ; lift nozzle

M109 S220 ; wait for temperature to be reached
G21 ; set units to millimeters
G90 ; use absolute coordinates
M82 ; use absolute distances for extrusion
G92 E0
G1 Z0.300 F2000.0
G1 E-2.00000 F2400.00000
G92 E0
G1 X36.753 Y46.828 F7800.000
G1 E2.00000 F2400.00000
G1 X40.000 Y45.964 E2.22443 F1800.000
G1 X60.000 Y45.964 E3.56054
G1 X62.243 Y46.361 E3.71271
G1 X64.213 Y47.504 E3.86488 F1800.000
G1 X65.672 Y49.253 E4.01705
G1 X66.536 Y52.500 E4.24148
G1 X66.536 Y72.500 E5.57759
G1 X66.139 Y74.743 E5.72976
G1 X64.996 Y76.713 E5.88193
G1 X63.247 Y78.172 E6.03410
G1 X60.000 Y79.036 E6.25853
G1 X40.000 Y79.036 E7.59464
G1 X37.757 Y78.639 E7.74681
G1 X35.787 Y77.496 E7.89898
G1 X34.328 Y75.747 E8.05115
G1 X33.464 Y72.500 E8.27558
G1 X33.464 Y52.500 E9.61169
G1 X33.861 Y50.257 E9.76386
G1 X35.004 Y48.287 E9.91603
G1 X36.707 Y46.866 E10.06420
G1 E8.06420 F2400.00000
G92 E0
G1 X58.629 Y71.129 F7800.000
G1 E2.00000 F2400.00000
G1 X41.371 Y71.129 E3.15290 F1800.000
G1 X41.371 Y53.871 E4.30579
G1 X58.629 Y53.871 E5.45869
G1 X58.629 Y71.069 E6.60758
G1 X59.164 Y71.664 F7800.000
G1 X40.836 Y71.664 E7.83204 F1800.000
G1 X40.836 Y53.336 E9.05650
G1 X59.164 Y53.336 E10.28096
G1 X59.164 Y71.604 E11.50141
G1 X59.700 Y72.200 F7800.000
G1 X40.300 Y72.200 E12.79743 F1800.000
G1 X40.300 Y52.800 E14.09346
G1 X59.700 Y52.800 E15.38948
G1 X59.700 Y72.140 E16.68150
G1 X59.354 Y72.000 F7800.000
G1 X58.307 Y54.460 F7800.000
G1 X58.040 Y54.193 E16.70684 F1800.000
G1 X57.280 Y54.193 E16.75783
G1 X58.307 Y55.220 E16.85528
G1 X58.307 Y55.981 E16.90626
G1 X56.519 Y54.193 E17.07581
G1 X55.759 Y54.193 E17.12680
G1 X58.307 Y56.741 E17.36845
G1 X58.307 Y57.501 E17.41943
G1 X54.999 Y54.193 E17.73319
G1 X54.238 Y54.193 E17.78418
G1 X58.307 Y58.262 E18.17004
G1 X58.307 Y59.022 E18.22102
G1 X53.478 Y54.193 E18.67899
G1 X52.718 Y54.193 E18.72997
G1 X58.307 Y59.782 E19.26004
G1 X58.307 Y60.543 E19.31102
G1 X51.957 Y54.193 E19.91319
G1 X51.197 Y54.193 E19.96418
G1 X58.307 Y61.303 E20.63845
G1 X58.307 Y62.063 E20.68944
G1 X50.437 Y54.193 E21.43581
G1 X49.676 Y54.193 E21.48680
G1 X58.307 Y62.824 E22.30528
G1 X58.307 Y63.584 E22.35627
G1 X48.916 Y54.193 E23.24685
G1 X48.156 Y54.193 E23.29783
G1 X58.307 Y64.344 E24.26052
G1 X58.307 Y65.105 E24.31151
G1 X47.395 Y54.193 E25.34630
G1 X46.635 Y54.193 E25.39728
G1 X58.307 Y65.865 E26.50418
G1 X58.307 Y66.625 E26.55516
G1 X45.875 Y54.193 E27.73416
G1 X45.114 Y54.193 E27.78515
G1 X58.307 Y67.386 E29.03625
G1 X58.307 Y68.146 E29.08723
G1 X44.354 Y54.193 E30.41044
G1 X43.594 Y54.193 E30.46142
G1 X58.307 Y68.906 E31.85673
G1 X58.307 Y69.667 E31.90772
G1 X42.833 Y54.193 E33.37513
G1 X42.073 Y54.193 E33.42611
G1 X58.307 Y70.427 E34.96563
G1 X57.927 Y70.807 E35.00168
G1 X41.693 Y54.573 E36.54119
G1 X41.693 Y55.333 E36.59218
G1 X57.167 Y70.807 E38.05959
G1 X56.406 Y70.807 E38.11057
G1 X41.693 Y56.094 E39.50588
G1 X41.693 Y56.854 E39.55686
G1 X55.646 Y70.807 E40.88006
G1 X54.886 Y70.807 E40.93105
G1 X41.693 Y57.614 E42.18215
G1 X41.693 Y58.375 E42.23313
G1 X54.125 Y70.807 E43.41213
G1 X53.365 Y70.807 E43.46311
G1 X41.693 Y59.135 E44.57000
G1 X41.693 Y59.895 E44.62099
G1 X52.605 Y70.807 E45.65578
G1 X51.844 Y70.807 E45.70676
G1 X41.693 Y60.656 E46.66945
G1 X41.693 Y61.416 E46.72043
G1 X51.084 Y70.807 E47.61101
G1 X50.324 Y70.807 E47.66200
G1 X41.693 Y62.176 E48.48048
G1 X41.693 Y62.937 E48.53146
G1 X49.563 Y70.807 E49.27784
G1 X48.803 Y70.807 E49.32882
G1 X41.693 Y63.697 E50.00309
G1 X41.693 Y64.457 E50.05408
G1 X48.043 Y70.807 E50.65624
G1 X47.282 Y70.807 E50.70723
G1 X41.693 Y65.218 E51.23729
G1 X41.693 Y65.978 E51.28828
G1 X46.522 Y70.807 E51.74624
G1 X45.762 Y70.807 E51.79722
G1 X41.693 Y66.738 E52.18308
G1 X41.693 Y67.499 E52.23407
G1 X45.001 Y70.807 E52.54782
G1 X44.241 Y70.807 E52.59881
G1 X41.693 Y68.259 E52.84046
G1 X41.693 Y69.019 E52.89144
G1 X43.481 Y70.807 E53.06099
G1 X42.720 Y70.807 E53.11197
G1 X41.693 Y69.780 E53.20942
G1 X41.693 Y70.540 E53.26040
G1 X41.960 Y70.807 E53.28574
G1 Z0.500 F2000.0
G1 X58.679 Y71.179 F7800.000
G1 X41.321 Y71.179 E54.19261 F3600.000
G1 X41.321 Y53.821 E55.09947
G1 X58.679 Y53.821 E56.00634
G1 X58.679 Y71.119 E56.91007
G1 X59.307 Y71.807 F7800.000
G1 X40.693 Y71.807 E57.88259 F3600.000
G1 X40.693 Y53.193 E58.85510
G1 X59.307 Y53.193 E59.82762
G1 X59.307 Y71.747 E60.79701
G1 X59.800 Y72.300 F7800.000
G1 X40.200 Y72.300 E61.37895 F1800.000
G1 X40.200 Y52.700 E61.96090
G1 X59.800 Y52.700 E62.54285
G1 X59.800 Y72.240 E63.12302
G1 X59.454 Y72.100 F7800.000
G1 X57.992 Y70.798 F7800.000
G1 X58.298 Y70.492 E63.14609 F1200.000
G1 X58.298 Y69.587 E63.19425
G1 X57.087 Y70.798 E63.28542
G1 X56.182 Y70.798 E63.33357
G1 X58.298 Y68.682 E63.49284
G1 X58.298 Y67.777 E63.54100
G1 X55.277 Y70.798 E63.76837
G1 X54.372 Y70.798 E63.81653
G1 X58.298 Y66.872 E64.11200
G1 X58.298 Y65.967 E64.16016
G1 X53.467 Y70.798 E64.52373
G1 X52.562 Y70.798 E64.57189
G1 X58.298 Y65.062 E65.00356
G1 X58.298 Y64.157 E65.05172
G1 X51.657 Y70.798 E65.55150
G1 X50.752 Y70.798 E65.59965
G1 X58.298 Y63.252 E66.16753
G1 X58.298 Y62.347 E66.21569
G1 X49.847 Y70.798 E66.85167
G1 X48.942 Y70.798 E66.89982
G1 X58.298 Y61.442 E67.60390
G1 X58.298 Y60.537 E67.65206
G1 X48.037 Y70.798 E68.42424
G1 X47.132 Y70.798 E68.47240
G1 X58.298 Y59.632 E69.31268
G1 X58.298 Y58.727 E69.36083
G1 X46.227 Y70.798 E70.26922
G1 X45.322 Y70.798 E70.31737
G1 X58.298 Y57.822 E71.29386
G1 X58.298 Y56.917 E71.34202
G1 X44.417 Y70.798 E72.38660
G1 X43.512 Y70.798 E72.43476
G1 X58.298 Y56.012 E73.54745
G1 X58.298 Y55.107 E73.59560
G1 X42.607 Y70.798 E74.77639
G1 X41.722 Y70.778 E74.82349
G1 X58.278 Y54.222 E76.06937
G1 X57.393 Y54.202 E76.11648
G1 X41.702 Y69.893 E77.29726
G1 X41.702 Y68.988 E77.34542
G1 X56.488 Y54.202 E78.45811
G1 X55.583 Y54.202 E78.50626
G1 X41.702 Y68.083 E79.55085
G1 X41.702 Y67.178 E79.59900
G1 X54.678 Y54.202 E80.57548
G1 X53.773 Y54.202 E80.62364
G1 X41.702 Y66.273 E81.53202
G1 X41.702 Y65.368 E81.58018
G1 X52.868 Y54.202 E82.42046
G1 X51.963 Y54.202 E82.46861
G1 X41.702 Y64.463 E83.24079
G1 X41.702 Y63.558 E83.28895
G1 X51.058 Y54.202 E83.99303
G1 X50.153 Y54.202 E84.04118
G1 X41.702 Y62.653 E84.67716
G1 X41.702 Y61.748 E84.72532
G1 X49.248 Y54.202 E85.29319
G1 X48.343 Y54.202 E85.34135
G1 X41.702 Y60.843 E85.84112
G1 X41.702 Y59.938 E85.88928
G1 X47.438 Y54.202 E86.32095
G1 X46.533 Y54.202 E86.36911
G1 X41.702 Y59.033 E86.73268
G1 X41.702 Y58.128 E86.78084
G1 X45.628 Y54.202 E87.07631
G1 X44.723 Y54.202 E87.12446
G1 X41.702 Y57.223 E87.35183
G1 X41.702 Y56.318 E87.39999
G1 X43.818 Y54.202 E87.55926
G1 X42.913 Y54.202 E87.60741
G1 X41.702 Y55.413 E87.69858
G1 X41.702 Y54.508 E87.74674
G1 X42.008 Y54.202 E87.76980
G1 Z0.700 F2000.0
G1 X58.679 Y71.179 F7800.000
G1 X41.321 Y71.179 E88.67667 F3600.000
G1 X41.321 Y53.821 E89.58354
G1 X58.679 Y53.821 E90.49040
G1 X58.679 Y71.119 E91.39413
G1 X59.307 Y71.807 F7800.000
G1 X40.693 Y71.807 E92.36665 F3600.000
G1 X40.693 Y53.193 E93.33917
G1 X59.307 Y53.193 E94.31168
G1 X59.307 Y71.747 E95.28107
G1 X59.800 Y72.300 F7800.000
G1 X40.200 Y72.300 E95.86302 F1800.000
G1 X40.200 Y52.700 E96.44497
G1 X59.800 Y52.700 E97.02692
G1 X59.800 Y72.240 E97.60708
G1 X59.454 Y72.100 F7800.000
G1 X58.298 Y54.508 F7800.000
G1 X57.992 Y54.202 E97.63015 F1200.000
G1 X57.087 Y54.202 E97.67831
G1 X58.298 Y55.413 E97.76948
G1 X58.298 Y56.318 E97.81763
G1 X56.182 Y54.202 E97.97691
G1 X55.277 Y54.202 E98.02506
G1 X58.298 Y57.223 E98.25244
G1 X58.298 Y58.128 E98.30059
G1 X54.372 Y54.202 E98.59606
G1 X53.467 Y54.202 E98.64422
G1 X58.298 Y59.033 E99.00780
G1 X58.298 Y59.938 E99.05595
G1 X52.562 Y54.202 E99.48763
G1 X51.657 Y54.202 E99.53578
G1 X58.298 Y60.843 E100.03556
G1 X58.298 Y61.748 E100.08371
G1 X50.752 Y54.202 E100.65159
G1 X49.847 Y54.202 E100.69975
G1 X58.298 Y62.653 E101.33573
G1 X58.298 Y63.558 E101.38388
G1 X48.942 Y54.202 E102.08797
G1 X48.037 Y54.202 E102.13612
G1 X58.298 Y64.463 E102.90830
G1 X58.298 Y65.368 E102.95646
G1 X47.132 Y54.202 E103.79674
G1 X46.227 Y54.202 E103.84490
G1 X58.298 Y66.273 E104.75328
G1 X58.298 Y67.178 E104.80144
G1 X45.322 Y54.202 E105.77792
G1 X44.417 Y54.202 E105.82608
G1 X58.298 Y68.083 E106.87067
G1 X58.298 Y68.988 E106.91882
G1 X43.512 Y54.202 E108.03151
G1 X42.607 Y54.202 E108.07967
G1 X58.298 Y69.893 E109.26046
G1 X58.278 Y70.778 E109.30756
G1 X41.722 Y54.222 E110.55344
G1 X41.702 Y55.107 E110.60054
G1 X57.393 Y70.798 E111.78133
G1 X56.488 Y70.798 E111.82948
G1 X41.702 Y56.012 E112.94217
G1 X41.702 Y56.917 E112.99032
G1 X55.583 Y70.798 E114.03491
G1 X54.678 Y70.798 E114.08306
G1 X41.702 Y57.822 E115.05955
G1 X41.702 Y58.727 E115.10770
G1 X53.773 Y70.798 E116.01609
G1 X52.868 Y70.798 E116.06424
G1 X41.702 Y59.632 E116.90452
G1 X41.702 Y60.537 E116.95268
G1 X51.963 Y70.798 E117.72486
G1 X51.058 Y70.798 E117.77301
G1 X41.702 Y61.442 E118.47709
G1 X41.702 Y62.347 E118.52525
G1 X50.153 Y70.798 E119.16123
G1 X49.248 Y70.798 E119.20938
G1 X41.702 Y63.252 E119.77726
G1 X41.702 Y64.157 E119.82541
G1 X48.343 Y70.798 E120.32519
G1 X47.438 Y70.798 E120.37334
G1 X41.702 Y65.062 E120.80502
G1 X41.702 Y65.967 E120.85317
G1 X46.533 Y70.798 E121.21675
G1 X45.628 Y70.798 E121.26490
G1 X41.702 Y66.872 E121.56037
G1 X41.702 Y67.777 E121.60853
G1 X44.723 Y70.798 E121.83590
G1 X43.818 Y70.798 E121.88405
G1 X41.702 Y68.682 E122.04332
G1 X41.702 Y69.587 E122.09148
G1 X42.913 Y70.798 E122.18265
G1 X42.008 Y70.798 E122.23080
G1 X41.702 Y70.492 E122.25387
M106 S244.8
G1 Z0.900 F2000.0
G1 X58.679 Y71.179 F7800.000
G1 X41.321 Y71.179 E123.16073 F3600.000
G1 X41.321 Y53.821 E124.06760
G1 X58.679 Y53.821 E124.97446
G1 X58.679 Y71.119 E125.87820
G1 X59.307 Y71.807 F7800.000
G1 X40.693 Y71.807 E126.85071 F3600.000
G1 X40.693 Y53.193 E127.82323
G1 X59.307 Y53.193 E128.79575
G1 X59.307 Y71.747 E129.76513
G1 X59.800 Y72.300 F7800.000
G1 X40.200 Y72.300 E130.34708 F1800.000
G1 X40.200 Y52.700 E130.92903
G1 X59.800 Y52.700 E131.51098
G1 X59.800 Y72.240 E132.09115
G1 X59.454 Y72.100 F7800.000
G1 X57.546 Y70.798 F7800.000
G1 X58.298 Y70.046 E132.14673 F4800.000
G1 X58.298 Y68.269 E132.23957
G1 X55.769 Y70.798 E132.42646
G1 X53.992 Y70.798 E132.51930
G1 X58.298 Y66.492 E132.83749
G1 X58.298 Y64.715 E132.93034
G1 X52.215 Y70.798 E133.37983
G1 X50.437 Y70.798 E133.47268
G1 X58.298 Y62.937 E134.05348
G1 X58.298 Y61.160 E134.14633
G1 X48.660 Y70.798 E134.85844
G1 X46.883 Y70.798 E134.95128
G1 X58.298 Y59.383 E135.79470
G1 X58.298 Y57.606 E135.88754
G1 X45.106 Y70.798 E136.86226
G1 X43.329 Y70.798 E136.95511
G1 X58.298 Y55.829 E138.06113
G1 X58.148 Y54.202 E138.14649
G1 X41.702 Y70.648 E139.36163
G1 X41.702 Y68.871 E139.45448
G1 X56.371 Y54.202 E140.53831
G1 X54.594 Y54.202 E140.63116
G1 X41.702 Y67.094 E141.58369
G1 X41.702 Y65.317 E141.67653
G1 X52.817 Y54.202 E142.49775
G1 X51.039 Y54.202 E142.59060
G1 X41.702 Y63.539 E143.28051
G1 X41.702 Y61.762 E143.37336
G1 X49.262 Y54.202 E143.93197
G1 X47.485 Y54.202 E144.02482
G1 X41.702 Y59.985 E144.45212
G1 X41.702 Y58.208 E144.54497
G1 X45.708 Y54.202 E144.84097
G1 X43.931 Y54.202 E144.93381
G1 X41.702 Y56.431 E145.09850
G1 X41.702 Y54.654 E145.19135
G1 X42.154 Y54.202 E145.22474
G1 Z1.100 F2000.0
G1 X58.679 Y71.179 F7800.000
G1 X41.321 Y71.179 E146.13160 F3600.000
G1 X41.321 Y53.821 E147.03847
G1 X58.679 Y53.821 E147.94533
G1 X58.679 Y71.119 E148.84906
G1 X59.307 Y71.807 F7800.000
G1 X40.693 Y71.807 E149.82158 F3600.000
G1 X40.693 Y53.193 E150.79410
G1 X59.307 Y53.193 E151.76662
G1 X59.307 Y71.747 E152.73600
G1 X59.800 Y72.300 F7800.000
G1 X40.200 Y72.300 E153.31795 F1800.000
G1 X40.200 Y52.700 E153.89990
G1 X59.800 Y52.700 E154.48185
G1 X59.800 Y72.240 E155.06202
G1 X59.454 Y72.100 F7800.000
G1 X58.298 Y54.954 F7800.000
G1 X57.546 Y54.202 E155.11759 F4800.000
G1 X55.769 Y54.202 E155.21044
G1 X58.298 Y56.731 E155.39733
G1 X58.298 Y58.508 E155.49017
G1 X53.992 Y54.202 E155.80836
G1 X52.215 Y54.202 E155.90121
G1 X58.298 Y60.285 E156.35071
G1 X58.298 Y62.063 E156.44355
G1 X50.437 Y54.202 E157.02435
G1 X48.660 Y54.202 E157.11720
G1 X58.298 Y63.840 E157.82931
G1 X58.298 Y65.617 E157.92215
G1 X46.883 Y54.202 E158.76557
G1 X45.106 Y54.202 E158.85841
G1 X58.298 Y67.394 E159.83313
G1 X58.298 Y69.171 E159.92598
G1 X43.329 Y54.202 E161.03200
G1 X41.702 Y54.352 E161.11737
G1 X58.148 Y70.798 E162.33250
G1 X56.371 Y70.798 E162.42535
G1 X41.702 Y56.129 E163.50918
G1 X41.702 Y57.906 E163.60203
G1 X54.594 Y70.798 E164.55456
G1 X52.817 Y70.798 E164.64740
G1 X41.702 Y59.683 E165.46862
G1 X41.702 Y61.461 E165.56147
G1 X51.039 Y70.798 E166.25138
G1 X49.262 Y70.798 E166.34423
G1 X41.702 Y63.238 E166.90284
G1 X41.702 Y65.015 E166.99569
G1 X47.485 Y70.798 E167.42299
G1 X45.708 Y70.798 E167.51584
G1 X41.702 Y66.792 E167.81183
G1 X41.702 Y68.569 E167.90468
G1 X43.931 Y70.798 E168.06937
G1 X42.154 Y70.798 E168.16222
G1 X41.702 Y70.346 E168.19561
G1 Z1.300 F2000.0
G1 X58.679 Y71.179 F7800.000
G1 X41.321 Y71.179 E169.10247 F3600.000
G1 X41.321 Y53.821 E170.00934
G1 X58.679 Y53.821 E170.91620
G1 X58.679 Y71.119 E171.81993
G1 X59.307 Y71.807 F7800.000
G1 X40.693 Y71.807 E172.79245 F3600.000
G1 X40.693 Y53.193 E173.76497
G1 X59.307 Y53.193 E174.73749
G1 X59.307 Y71.747 E175.70687
G1 X59.800 Y72.300 F7800.000
G1 X40.200 Y72.300 E176.28882 F1800.000
G1 X40.200 Y52.700 E176.87077
G1 X59.800 Y52.700 E177.45272
G1 X59.800 Y72.240 E178.03289
G1 X59.454 Y72.100 F7800.000
G1 X57.546 Y70.798 F7800.000
G1 X58.298 Y70.046 E178.08846 F4800.000
G1 X58.298 Y68.269 E178.18131
G1 X55.769 Y70.798 E178.36819
G1 X53.992 Y70.798 E178.46104
G1 X58.298 Y66.492 E178.77923
G1 X58.298 Y64.715 E178.87208
G1 X52.215 Y70.798 E179.32157
G1 X50.437 Y70.798 E179.41442
G1 X58.298 Y62.937 E179.99522
G1 X58.298 Y61.160 E180.08807
G1 X48.660 Y70.798 E180.80017
G1 X46.883 Y70.798 E180.89302
G1 X58.298 Y59.383 E181.73643
G1 X58.298 Y57.606 E181.82928
G1 X45.106 Y70.798 E182.80400
G1 X43.329 Y70.798 E182.89684
G1 X58.298 Y55.829 E184.00287
G1 X58.148 Y54.202 E184.08823
G1 X41.702 Y70.648 E185.30337
G1 X41.702 Y68.871 E185.39622
G1 X56.371 Y54.202 E186.48005
G1 X54.594 Y54.202 E186.57290
G1 X41.702 Y67.094 E187.52542
G1 X41.702 Y65.317 E187.61827
G1 X52.817 Y54.202 E188.43949
G1 X51.039 Y54.202 E188.53234
G1 X41.702 Y63.539 E189.22225
G1 X41.702 Y61.762 E189.31510
G1 X49.262 Y54.202 E189.87371
G1 X47.485 Y54.202 E189.96655
G1 X41.702 Y59.985 E190.39386
G1 X41.702 Y58.208 E190.48671
G1 X45.708 Y54.202 E190.78270
G1 X43.931 Y54.202 E190.87555
G1 X41.702 Y56.431 E191.04024
G1 X41.702 Y54.654 E191.13309
G1 X42.154 Y54.202 E191.16647
G1 Z1.500 F2000.0
G1 X58.679 Y71.179 F7800.000
G1 X41.321 Y71.179 E192.07334 F3600.000
G1 X41.321 Y53.821 E192.98020
G1 X58.679 Y53.821 E193.88707
G1 X58.679 Y71.119 E194.79080
G1 X59.307 Y71.807 F7800.000
G1 X40.693 Y71.807 E195.76332 F3600.000
G1 X40.693 Y53.193 E196.73584
G1 X59.307 Y53.193 E197.70835
G1 X59.307 Y71.747 E198.67774
G1 X59.800 Y72.300 F7800.000
G1 X40.200 Y72.300 E199.25969 F1800.000
G1 X40.200 Y52.700 E199.84164
G1 X59.800 Y52.700 E200.42359
G1 X59.800 Y72.240 E201.00375
G1 X59.454 Y72.100 F7800.000
G1 X58.298 Y54.954 F7800.000
G1 X57.546 Y54.202 E201.05933 F4800.000
G1 X55.769 Y54.202 E201.15218
G1 X58.298 Y56.731 E201.33906
G1 X58.298 Y58.508 E201.43191
G1 X53.992 Y54.202 E201.75010
G1 X52.215 Y54.202 E201.84295
G1 X58.298 Y60.285 E202.29244
G1 X58.298 Y62.063 E202.38529
G1 X50.437 Y54.202 E202.96609
G1 X48.660 Y54.202 E203.05894
G1 X58.298 Y63.840 E203.77104
G1 X58.298 Y65.617 E203.86389
G1 X46.883 Y54.202 E204.70730
G1 X45.106 Y54.202 E204.80015
G1 X58.298 Y67.394 E205.77487
G1 X58.298 Y69.171 E205.86772
G1 X43.329 Y54.202 E206.97374
G1 X41.702 Y54.352 E207.05910
G1 X58.148 Y70.798 E208.27424
G1 X56.371 Y70.798 E208.36709
G1 X41.702 Y56.129 E209.45092
G1 X41.702 Y57.906 E209.54377
G1 X54.594 Y70.798 E210.49629
